public/images/sponsors/Arcitecta.svg

<svg fill="none" height="86" viewBox="0 0 172 86" width="172" xmlns="http://www.w3.org/2000/svg"><g fill="#000"><circle cx="16.668" cy="23.3548" r="3.69047"/><circle cx="41.9007" cy="26.6162" r="3.51882"/><circle cx="16.3248" cy="31.5941" r="4.03377"/><circle cx="27.3967" cy="51.0764" r="4.29125"/><circle cx="44.9045" cy="36.1428" r="4.29125"/><circle cx="23.6204" cy="17.6046" r="2.7464"/><circle cx="18.299" cy="17.7763" r="1.7165"/><circle cx="20.9591" cy="27.6461" r="1.80232"/><circle cx="11.4331" cy="26.8737" r="1.88815"/><circle cx="9.45902" cy="31.4224" r="1.45902"/><circle cx="10.3172" cy="35.5421" r="1.97397"/><circle cx="9.80274" cy="39.49" r="1.11572"/><circle cx="12.1196" cy="43.8672" r="1.88815"/><circle cx="20.1014" cy="50.8189" r="1.97397"/><circle cx="22.4189" cy="46.7851" r="1.54485"/><circle cx="24.3068" cy="43.0087" r="1.7165"/><circle cx="27.568" cy="44.8971" r="1.3732"/><circle cx="31.8591" cy="38.7175" r="1.7165"/><circle cx="30.9153" cy="35.0271" r=".944075"/><circle cx="33.2327" cy="20.3511" r="2.0598"/><circle cx="35.4639" cy="24.6423" r="2.23145"/><circle cx="44.5618" cy="43.1804" r="2.0598"/><circle cx="38.8111" cy="32.109" r="1.80232"/><circle cx="46.8787" cy="29.5345" r="1.63067"/><circle cx="35.9786" cy="28.5902" r="1.0299"/><circle cx="41.8151" cy="20.5226" r="1.0299"/><circle cx="35.5501" cy="16.1455" r="1.28737"/><circle cx="31.5163" cy="16.5747" r="1.7165"/><circle cx="27.3108" cy="14.9441" r=".944075"/><circle cx="22.8478" cy="23.1832" r="2.14562"/><circle cx="28.5979" cy="32.0232" r="2.4031"/><circle cx="14.4369" cy="38.6318" r="2.66057"/><circle cx="38.1246" cy="19.4071" r="2.14562"/><circle cx="26.9673" cy="38.4602" r="3.00387"/><circle cx="32.3744" cy="43.867" r="3.0897"/><circle cx="35.4637" cy="50.9046" r="3.0897"/><path d="m40.5879 71.0068h2.4155l4.5676-10.2331 4.4358 10.2331h2.4595l-6.8953-15.1521z"/><path clip-rule="evenodd" d="m59.2095 71.0068h2.196v-5.7534h.3513l3.9966 5.7534h2.7669l-4.4358-6.0608s3.057-.7467 3.0743-3.9527c.0174-3.2061-2.3277-3.7694-3.0743-3.9967-.7466-.2272-4.875-.2196-4.875-.2196zm2.196-7.7298v-4.4797h1.2297s1.1419-.0439 1.7567.571c.6149.6148.6588 1.2297.6588 1.625 0 .3952 0 1.0101-.6588 1.6689-.6587.6588-1.7567.6148-1.7567.6148z" fill-rule="evenodd"/><path d="m83.7602 57.5237v2.679s-1.4054-1.6689-3.799-1.6689-3.799 1.6689-3.799 1.6689-1.4932 1.4933-1.4932 3.6892 1.4932 3.7331 1.4932 3.7331 1.4054 1.5811 3.799 1.5811 3.799-1.5811 3.799-1.5811v2.6351s-1.625.9223-3.799.9223-3.799-.9223-3.799-.9223-1.6689-.8483-2.5583-2.4155c-.8893-1.5672-1.043-3.1182-1.043-3.9307s-.1537-2.174 1.043-3.9527c1.1968-1.7788 2.5583-2.4375 2.5583-2.4375s1.3615-.9663 3.799-.9663 3.799.9663 3.799.9663z"/><path d="m89.4257 71.0068h2.196v-14.2298h-2.196z"/><path d="m96.5406 56.777v2.0203h3.25v12.2095h2.1964v-12.2095h3.293v-2.0203z"/><path d="m110.155 56.777v14.2298h7.906v-2.0203h-5.797v-4.7432h5.577v-2.0642h-5.577v-3.3818h5.797v-2.0203z"/><path d="m134.311 57.5237v2.679s-1.406-1.6689-3.799-1.6689c-2.394 0-3.799 1.6689-3.799 1.6689s-1.493 1.4933-1.493 3.6892 1.493 3.7331 1.493 3.7331 1.405 1.5811 3.799 1.5811c2.393 0 3.799-1.5811 3.799-1.5811v2.6351s-1.625.9223-3.799.9223-3.799-.9223-3.799-.9223-1.669-.8483-2.558-2.4155c-.89-1.5672-1.043-3.1182-1.043-3.9307s-.154-2.174 1.043-3.9527c1.196-1.7788 2.558-2.4375 2.558-2.4375s1.361-.9663 3.799-.9663c2.437 0 3.799.9663 3.799.9663z"/><path d="m138.483 56.777v2.0203h3.25v12.2095h2.196v-12.2095h3.294v-2.0203z"/><path d="m150.122 71.0068h2.415l4.568-10.2331 4.436 10.2331h2.459l-6.895-15.1521z"/></g></svg>

<svg width="172" height="86" viewBox="0 0 172 86" fill="none" xmlns="http://www.w3.org/2000/svg">
<circle cx="16.668" cy="23.3548" r="3.69047" fill="black"/>
<circle cx="41.9007" cy="26.6162" r="3.51882" fill="black"/>
<circle cx="16.3248" cy="31.5941" r="4.03377" fill="black"/>
<circle cx="27.3967" cy="51.0764" r="4.29125" fill="black"/>
<circle cx="44.9045" cy="36.1428" r="4.29125" fill="black"/>
<circle cx="23.6204" cy="17.6046" r="2.7464" fill="black"/>
<circle cx="18.299" cy="17.7763" r="1.7165" fill="black"/>
<circle cx="20.9591" cy="27.6461" r="1.80232" fill="black"/>
<circle cx="11.4331" cy="26.8737" r="1.88815" fill="black"/>
<circle cx="9.45902" cy="31.4224" r="1.45902" fill="black"/>
<circle cx="10.3172" cy="35.5421" r="1.97397" fill="black"/>
<circle cx="9.80274" cy="39.49" r="1.11572" fill="black"/>
<circle cx="12.1196" cy="43.8672" r="1.88815" fill="black"/>
<circle cx="20.1014" cy="50.8189" r="1.97397" fill="black"/>
<circle cx="22.4189" cy="46.7851" r="1.54485" fill="black"/>
<circle cx="24.3068" cy="43.0087" r="1.7165" fill="black"/>
<circle cx="27.568" cy="44.8971" r="1.3732" fill="black"/>
<circle cx="31.8591" cy="38.7175" r="1.7165" fill="black"/>
<circle cx="30.9153" cy="35.0271" r="0.944075" fill="black"/>
<circle cx="33.2327" cy="20.3511" r="2.0598" fill="black"/>
<circle cx="35.4639" cy="24.6423" r="2.23145" fill="black"/>
<circle cx="44.5618" cy="43.1804" r="2.0598" fill="black"/>
<circle cx="38.8111" cy="32.109" r="1.80232" fill="black"/>
<circle cx="46.8787" cy="29.5345" r="1.63067" fill="black"/>
<circle cx="35.9786" cy="28.5902" r="1.0299" fill="black"/>
<circle cx="41.8151" cy="20.5226" r="1.0299" fill="black"/>
<circle cx="35.5501" cy="16.1455" r="1.28737" fill="black"/>
<circle cx="31.5163" cy="16.5747" r="1.7165" fill="black"/>
<circle cx="27.3108" cy="14.9441" r="0.944075" fill="black"/>
<circle cx="22.8478" cy="23.1832" r="2.14562" fill="black"/>
<circle cx="28.5979" cy="32.0232" r="2.4031" fill="black"/>
<circle cx="14.4369" cy="38.6318" r="2.66057" fill="black"/>
<circle cx="38.1246" cy="19.4071" r="2.14562" fill="black"/>
<circle cx="26.9673" cy="38.4602" r="3.00387" fill="black"/>
<circle cx="32.3744" cy="43.867" r="3.0897" fill="black"/>
<circle cx="35.4637" cy="50.9046" r="3.0897" fill="black"/>
<path d="M40.5879 71.0068H43.0034L47.571 60.7737L52.0068 71.0068H54.4663L47.571 55.8547L40.5879 71.0068Z" fill="black"/>
<path fill-rule="evenodd" clip-rule="evenodd" d="M59.2095 71.0068H61.4055V65.2534H61.7568L65.7534 71.0068H68.5203L64.0845 64.946C64.0845 64.946 67.1415 64.1993 67.1588 60.9933C67.1762 57.7872 64.8311 57.2239 64.0845 56.9966C63.3379 56.7694 59.2095 56.777 59.2095 56.777V71.0068ZM61.4055 63.277V58.7973H62.6352C62.6352 58.7973 63.7771 58.7534 64.3919 59.3683C65.0068 59.9831 65.0507 60.598 65.0507 60.9933C65.0507 61.3885 65.0507 62.0034 64.3919 62.6622C63.7332 63.321 62.6352 63.277 62.6352 63.277H61.4055Z" fill="black"/>
<path d="M83.7602 57.5237V60.2027C83.7602 60.2027 82.3548 58.5338 79.9612 58.5338C77.5676 58.5338 76.1622 60.2027 76.1622 60.2027C76.1622 60.2027 74.669 61.696 74.669 63.8919C74.669 66.0878 76.1622 67.625 76.1622 67.625C76.1622 67.625 77.5676 69.2061 79.9612 69.2061C82.3548 69.2061 83.7602 67.625 83.7602 67.625V70.2601C83.7602 70.2601 82.1352 71.1824 79.9612 71.1824C77.7872 71.1824 76.1622 70.2601 76.1622 70.2601C76.1622 70.2601 74.4933 69.4118 73.6039 67.8446C72.7146 66.2774 72.5609 64.7264 72.5609 63.9139C72.5609 63.1014 72.4072 61.7399 73.6039 59.9612C74.8007 58.1824 76.1622 57.5237 76.1622 57.5237C76.1622 57.5237 77.5237 56.5574 79.9612 56.5574C82.3987 56.5574 83.7602 57.5237 83.7602 57.5237Z" fill="black"/>
<path d="M89.4257 71.0068H91.6217V56.777H89.4257V71.0068Z" fill="black"/>
<path d="M96.5406 56.777V58.7973H99.7906V71.0068H101.987V58.7973H105.28V56.777H96.5406Z" fill="black"/>
<path d="M110.155 56.777V71.0068H118.061V68.9865H112.264V64.2433H117.841V62.1791H112.264V58.7973H118.061V56.777H110.155Z" fill="black"/>
<path d="M134.311 57.5237V60.2027C134.311 60.2027 132.905 58.5338 130.512 58.5338C128.118 58.5338 126.713 60.2027 126.713 60.2027C126.713 60.2027 125.22 61.696 125.22 63.8919C125.22 66.0878 126.713 67.625 126.713 67.625C126.713 67.625 128.118 69.2061 130.512 69.2061C132.905 69.2061 134.311 67.625 134.311 67.625V70.2601C134.311 70.2601 132.686 71.1824 130.512 71.1824C128.338 71.1824 126.713 70.2601 126.713 70.2601C126.713 70.2601 125.044 69.4118 124.155 67.8446C123.265 66.2774 123.112 64.7264 123.112 63.9139C123.112 63.1014 122.958 61.7399 124.155 59.9612C125.351 58.1824 126.713 57.5237 126.713 57.5237C126.713 57.5237 128.074 56.5574 130.512 56.5574C132.949 56.5574 134.311 57.5237 134.311 57.5237Z" fill="black"/>
<path d="M138.483 56.777V58.7973H141.733V71.0068H143.929V58.7973H147.223V56.777H138.483Z" fill="black"/>
<path d="M150.122 71.0068H152.537L157.105 60.7737L161.541 71.0068H164L157.105 55.8547L150.122 71.0068Z" fill="black"/>
</svg>
